X: 35078
T: Rolling In The Ryegrass
R: reel
M: 4/4
K: Amajor
|:e2ef ecAc|d2fd adfd|efec Acec|1 dfed B2A2:|2 dfed B2AF||
|:EFAB c2cA|d2dB cBAF|EFAB cAce|1 dcAc BAFD:|2 dcAc B2AF||
|:"Variation"E2EF EAcA|D2FD ADFD|EFEA cEAc|1 DFED EDEF:|2 DFED E3F||
|:EFAB c2cA|d2dB cBAF|EFAB cAce|1 dcAc BAFD:|2 dcAc B2A2||

